P3
8 8
255
204 128 230 51 128 230 128 204 230 128 51 230 204 128 230 51 128 230 128 204 230 128 51 230
128 204 230 128 51 230 204 128 230 51 128 230 128 204 230 128 51 230 204 128 230 51 128 230
204 128 230 51 128 230 128 204 230 128 51 230 204 128 230 51 128 230 128 204 230 128 51 230
128 204 230 128 51 230 204 128 230 51 128 230 128 204 230 128 51 230 204 128 230 51 128 230
204 128 230 51 128 230 128 204 230 128 51 230 204 128 230 51 128 230 128 204 230 128 51 230
128 204 230 128 51 230 204 128 230 51 128 230 128 204 230 128 51 230 204 128 230 51 128 230
204 128 230 51 128 230 128 204 230 128 51 230 204 128 230 51 128 230 128 204 230 128 51 230
128 204 230 128 51 230 204 128 230 51 128 230 128 204 230 128 51 230 204 128 230 51 128 230
